X: 20064
T: Jimmy Lyons' Highland
R: strathspey
M: 4/4
K: Amixolydian
A2B>A c>de>c|A>fe>c d2B>G|A2B>A c>de>f|1 g>fg>e d>fe>c:|2 g>fg>e d>ef>^g||
a2e>a f<de>f|g>dB>c d>ef>g|a2e>a f<de>f|g>dB>d c>BA>^g|
a2e>a f<de>f|g>fg>e d>ef>g|(3agf (3gfe f>de>c|d>fa>^g a>fe>c||

